pro/src/icons/stroke-hide.svg

<svg width="48" height="48" viewBox="0 0 48 48" xmlns="http://www.w3.org/2000/svg">
<g id="icon"><path fill-rule="evenodd" clip-rule="evenodd" d="M40.2669 8.28299C40.6574 8.66031 40.6574 9.27206 40.2669 9.64938L14.9735 34.0874C14.9621 34.0989 14.9504 34.1102 14.9385 34.1211L9.1468 39.717C8.75628 40.0943 8.12312 40.0943 7.73259 39.717C7.34207 39.3396 7.34207 38.7279 7.73259 38.3506L12.6227 33.6258C9.6724 31.8906 7.19694 29.7886 5.40869 28.0598C4.39849 27.0831 3.60112 26.2192 3.05454 25.5973C2.78112 25.2862 2.57009 25.0352 2.4262 24.8604C2.35424 24.773 2.29904 24.7047 2.26119 24.6573L2.2175 24.6023L2.20554 24.5871L2.20206 24.5826L2.20025 24.5803L2.99977 24L2.201 23.4187L2.20167 23.4179L2.20366 23.4153L2.21022 23.4069L2.2336 23.3774C2.25371 23.352 2.28285 23.3156 2.32079 23.2687C2.39666 23.1751 2.50779 23.0399 2.65242 22.8692C2.94159 22.5277 3.36512 22.0435 3.90894 21.464C4.99542 20.3061 6.56811 18.7617 8.5146 17.2151C12.3797 14.144 17.8543 10.9565 23.9998 10.9565C27.4629 10.9565 30.7154 11.9717 33.5643 13.3925L38.8526 8.28299C39.2432 7.90567 39.8763 7.90567 40.2669 8.28299ZM32.0738 14.8326C29.5751 13.6634 26.8403 12.8889 23.9998 12.8889C18.5452 12.8889 13.5198 15.74 9.78494 18.7076C7.93143 20.1803 6.42912 21.6552 5.39061 22.7619C4.92018 23.2632 4.54616 23.6876 4.27906 24.0003C4.36745 24.1038 4.46758 24.2197 4.57907 24.3465C5.09655 24.9354 5.85731 25.7599 6.82335 26.6938C8.62948 28.44 11.1308 30.5469 14.0812 32.2167L16.9755 29.4203C16.9455 29.3915 16.917 29.3605 16.8904 29.3274C15.7092 27.8602 14.9998 26.0106 14.9998 24C14.9998 19.1958 19.0275 15.3043 23.9998 15.3043C26.1274 15.3043 28.0803 16.0221 29.619 17.2044L32.0738 14.8326ZM28.193 18.5821C27.0212 17.7394 25.5717 17.2367 23.9998 17.2367C20.132 17.2367 16.9998 20.263 16.9998 24C16.9998 25.5221 17.521 26.9222 18.3956 28.0482L21.2892 25.2524C20.7095 24.0876 20.9977 22.6504 22.0698 21.7778C22.7056 21.2601 23.4969 21.0429 24.2629 21.1089C24.0955 21.3915 23.9998 21.7188 23.9998 22.0677C23.9998 22.2407 24.0233 22.4085 24.0675 22.5681L28.193 18.5821Z" fill="currentColor"/>
<path d="M2.201 23.4187C2.201 23.4187 2.20054 23.4193 2.99977 24C2.20025 24.5803 2.20025 24.5803 2.20025 24.5803C1.93284 24.2364 1.93341 23.7625 2.201 23.4187Z" fill="currentColor"/>
<path fill-rule="evenodd" clip-rule="evenodd" d="M40.284 17.8684C39.8664 17.5192 39.2348 17.5633 38.8735 17.9668C38.5121 18.3703 38.5577 18.9805 38.9754 19.3296C40.6059 20.6928 41.9178 22.0122 42.8212 22.99C43.1929 23.3923 43.4946 23.736 43.7202 24C43.4531 24.3126 43.0791 24.7369 42.6088 25.2381C41.5703 26.3448 40.068 27.8196 38.2145 29.2924C34.4796 32.2599 29.4542 35.1111 23.9997 35.1111C22.4342 35.1111 20.906 34.8757 19.4211 34.471C18.8896 34.3262 18.3371 34.6251 18.1872 35.1386C18.0373 35.6522 18.3467 36.186 18.8782 36.3308C20.5133 36.7764 22.2251 37.0434 23.9997 37.0434C30.1451 37.0434 35.6197 33.8559 39.4848 30.7849C41.4313 29.2383 43.004 27.6938 44.0905 26.536C44.6343 25.9565 45.0579 25.4722 45.347 25.1308C45.4917 24.96 45.6028 24.8249 45.6787 24.7312C45.7166 24.6844 45.7457 24.6479 45.7658 24.6226L45.7892 24.593L45.7958 24.5847L45.7985 24.5812C46.0661 24.2373 46.0662 23.7627 45.7985 23.4188L45.7962 23.4158L45.7904 23.4084L45.77 23.3826C45.7525 23.3605 45.7272 23.3287 45.6942 23.2879C45.6283 23.2064 45.5319 23.0885 45.4062 22.9392C45.155 22.6407 44.7869 22.216 44.3132 21.7032C43.3665 20.6785 41.9935 19.2975 40.284 17.8684ZM45.7985 23.4188L44.9997 24C45.799 23.4193 45.7985 23.4188 45.7985 23.4188ZM44.9997 24L45.7985 24.5812C45.7985 24.5812 45.7989 24.5807 44.9997 24Z" fill="currentColor"/>
<path d="M32.9999 24C32.9999 23.4664 32.5522 23.0338 31.9999 23.0338C31.4476 23.0338 30.9999 23.4664 30.9999 24C30.9999 27.7369 27.8676 30.7633 23.9999 30.7633C23.2747 30.7633 22.5734 30.6536 21.9131 30.4579C21.3851 30.3015 20.8258 30.5882 20.6638 31.0984C20.5019 31.6085 20.7987 32.1489 21.3267 32.3053C22.1663 32.5541 23.0651 32.6956 23.9999 32.6956C28.9722 32.6956 32.9999 28.8041 32.9999 24Z" fill="currentColor"/>
</g>
</svg>

<svg xmlns="http://www.w3.org/2000/svg" width="48" height="48"><g id="icon" fill="currentColor"><path fill-rule="evenodd" d="M40.267 8.283c.39.377.39.99 0 1.366L14.974 34.087l-.036.034-5.791 5.596a1.025 1.025 0 0 1-1.414 0 .943.943 0 0 1 0-1.366l4.89-4.725c-2.95-1.735-5.426-3.837-7.214-5.566a42 42 0 0 1-2.354-2.463 30 30 0 0 1-.794-.94l-.044-.055-.011-.015-.004-.004-.002-.003L3 24l-.799-.581v-.001l.003-.003.006-.008.024-.03.087-.108c.076-.094.187-.23.331-.4.29-.341.713-.825 1.257-1.405a43.6 43.6 0 0 1 4.606-4.249c3.865-3.071 9.34-6.258 15.485-6.258 3.463 0 6.715 1.015 9.564 2.435l5.289-5.109a1.025 1.025 0 0 1 1.414 0m-8.193 6.55c-2.499-1.17-5.234-1.944-8.074-1.944-5.455 0-10.48 2.851-14.215 5.819a41.6 41.6 0 0 0-4.394 4.054c-.47.501-.845.926-1.112 1.238q.133.157.3.346a40 40 0 0 0 2.244 2.348c1.806 1.746 4.308 3.853 7.258 5.523l2.895-2.797a1 1 0 0 1-.086-.093A8.47 8.47 0 0 1 15 24c0-4.804 4.028-8.696 9-8.696 2.127 0 4.08.718 5.619 1.9zm-3.881 3.75A7.16 7.16 0 0 0 24 17.236c-3.868 0-7 3.026-7 6.763 0 1.522.521 2.922 1.396 4.048l2.893-2.796c-.58-1.164-.291-2.602.78-3.474a3.05 3.05 0 0 1 2.194-.67 1.87 1.87 0 0 0-.196 1.46z" clip-rule="evenodd"/><path d="M2.201 23.419 3 24l-.8.58a.94.94 0 0 1 .001-1.161"/><path fill-rule="evenodd" d="M40.284 17.868a1.024 1.024 0 0 0-1.41.099.944.944 0 0 0 .101 1.363 42 42 0 0 1 3.846 3.66c.372.402.674.746.9 1.01-.268.313-.642.737-1.112 1.238a41.6 41.6 0 0 1-4.395 4.054c-3.734 2.968-8.76 5.82-14.214 5.82-1.566 0-3.094-.236-4.579-.641-.531-.145-1.084.154-1.234.668a.96.96 0 0 0 .691 1.192c1.635.445 3.347.712 5.122.712 6.145 0 11.62-3.187 15.485-6.258a43.6 43.6 0 0 0 4.605-4.249 37 37 0 0 0 1.589-1.805l.087-.108.023-.03.007-.008.002-.004a.94.94 0 0 0 0-1.162l-.002-.003-.006-.008-.02-.025-.076-.095q-.099-.124-.288-.349a36 36 0 0 0-1.093-1.236 44 44 0 0 0-4.029-3.835m5.514 5.55L45 24c.799-.58.798-.581.798-.581M45 24l.798.581z" clip-rule="evenodd"/><path d="M33 24c0-.534-.448-.966-1-.966s-1 .432-1 .966c0 3.737-3.132 6.763-7 6.763a7.3 7.3 0 0 1-2.087-.305c-.528-.156-1.087.13-1.25.64a.96.96 0 0 0 .664 1.207c.84.25 1.738.39 2.673.39 4.972 0 9-3.89 9-8.695"/></g></svg>
